icons/circle/48/gba.svg

<svg xmlns="http://www.w3.org/2000/svg" viewBox="0 0 48 48">
 <defs>
  <linearGradient id="linearGradient3764" x1="1" x2="47" gradientUnits="userSpaceOnUse" gradientTransform="matrix(0,-1,1,0,-1.5e-6,47.999998)">
   <stop style="stop-color:#3d3d3d;stop-opacity:1"/>
   <stop offset="1" style="stop-color:#474747;stop-opacity:1"/>
  </linearGradient>
 </defs>
 <g>
  <path d="m 36.31 5 c 5.859 4.062 9.688 10.831 9.688 18.5 c 0 12.426 -10.07 22.5 -22.5 22.5 c -7.669 0 -14.438 -3.828 -18.5 -9.688 c 1.037 1.822 2.306 3.499 3.781 4.969 c 4.085 3.712 9.514 5.969 15.469 5.969 c 12.703 0 23 -10.298 23 -23 c 0 -5.954 -2.256 -11.384 -5.969 -15.469 c -1.469 -1.475 -3.147 -2.744 -4.969 -3.781 z m 4.969 3.781 c 3.854 4.113 6.219 9.637 6.219 15.719 c 0 12.703 -10.297 23 -23 23 c -6.081 0 -11.606 -2.364 -15.719 -6.219 c 4.16 4.144 9.883 6.719 16.219 6.719 c 12.703 0 23 -10.298 23 -23 c 0 -6.335 -2.575 -12.06 -6.719 -16.219 z" style="opacity:0.05"/>
  <path d="m 41.28 8.781 c 3.712 4.085 5.969 9.514 5.969 15.469 c 0 12.703 -10.297 23 -23 23 c -5.954 0 -11.384 -2.256 -15.469 -5.969 c 4.113 3.854 9.637 6.219 15.719 6.219 c 12.703 0 23 -10.298 23 -23 c 0 -6.081 -2.364 -11.606 -6.219 -15.719 z" style="opacity:0.1"/>
  <path d="m 31.25 2.375 c 8.615 3.154 14.75 11.417 14.75 21.13 c 0 12.426 -10.07 22.5 -22.5 22.5 c -9.708 0 -17.971 -6.135 -21.12 -14.75 a 23 23 0 0 0 44.875 -7 a 23 23 0 0 0 -16 -21.875 z" style="opacity:0.2"/>
 </g>
 <g>
  <path d="m 24 1 c 12.703 0 23 10.297 23 23 c 0 12.703 -10.297 23 -23 23 -12.703 0 -23 -10.297 -23 -23 0 -12.703 10.297 -23 23 -23 z" style="fill:url(#linearGradient3764);fill-opacity:1"/>
 </g>
 <g>
  <g>
   <g transform="translate(1,1)">
    <g style="opacity:0.1">
     <!-- color: #474747 -->
     <g>
      <path d="m 18.17 12 l 11.668 0 c 0.641 0 1.164 0.523 1.164 1.168 l 0 21.668 c 0 0.641 -0.523 1.164 -1.164 1.164 l -11.668 0 c -0.648 0 -1.168 -0.523 -1.168 -1.164 l 0 -21.668 c 0 -0.645 0.52 -1.168 1.168 -1.168 m 0 0" style="fill:#000;fill-opacity:1;stroke:none;fill-rule:nonzero"/>
     </g>
    </g>
   </g>
  </g>
 </g>
 <g>
  <g>
   <!-- color: #474747 -->
   <g>
    <path d="m 18.17,12 11.668,0 c 0.641,0 1.164,0.523 1.164,1.168 l 0,21.668 C 31.002,35.477 30.479,36 29.838,36 L 18.17,36 c -0.648,0 -1.168,-0.523 -1.168,-1.164 l 0,-21.668 C 17.002,12.523 17.522,12 18.17,12 m 0,0" style="fill:#955bc1;fill-opacity:1;stroke:none;fill-rule:nonzero"/>
    <path d="m 17.355,23 13.289,0 c 0.195,0 0.355,0.16 0.355,0.355 l 0,1.289 c 0,0.195 -0.16,0.352 -0.355,0.352 l -13.289,0 C 17.16,24.996 17,24.84 17,24.644 l 0,-1.289 C 17,23.16 17.16,23 17.355,23 m 0,0" style="fill:#fff;fill-opacity:0.251;stroke:none;fill-rule:nonzero"/>
    <path d="m 20,28 0.996,0 0,3 L 20,31 m 0,-3" style="fill:#f9f9f9;fill-opacity:0.902;stroke:none;fill-rule:nonzero"/>
    <path d="m 19,29 3,0 0,0.996 -3,0 M 19,29" style="fill:#f9f9f9;fill-opacity:0.902;stroke:none;fill-rule:nonzero"/>
    <path d="M 28,28.5 C 28,28.777 27.777,29 27.5,29 27.223,29 27,28.777 27,28.5 27,28.223 27.223,28 27.5,28 c 0.277,0 0.5,0.223 0.5,0.5 m 0,0" style="fill:#f9f9f9;fill-opacity:0.902;stroke:none;fill-rule:nonzero"/>
    <path d="M 29,29.5 C 29,29.777 28.777,30 28.5,30 28.223,30 28,29.777 28,29.5 28,29.223 28.223,29 28.5,29 c 0.277,0 0.5,0.223 0.5,0.5 m 0,0" style="fill:#f9f9f9;fill-opacity:0.902;stroke:none;fill-rule:nonzero"/>
    <path d="M 27,29.5 C 27,29.777 26.777,30 26.5,30 26.223,30 26,29.777 26,29.5 26,29.223 26.223,29 26.5,29 c 0.277,0 0.5,0.223 0.5,0.5 m 0,0" style="fill:#f9f9f9;fill-opacity:0.902;stroke:none;fill-rule:nonzero"/>
    <path d="M 28,30.5 C 28,30.777 27.777,31 27.5,31 27.223,31 27,30.777 27,30.5 27,30.223 27.223,30 27.5,30 c 0.277,0 0.5,0.223 0.5,0.5 m 0,0" style="fill:#f9f9f9;fill-opacity:0.902;stroke:none;fill-rule:nonzero"/>
    <path d="m 23,26 1.996,0 0,1 L 23,27 m 0,-1" style="fill:#f9f9f9;fill-opacity:0.902;stroke:none;fill-rule:nonzero"/>
    <path d="m 19 14 10 0 0 7 -10 0 m 0 -7" style="fill:#f9f9f9;fill-opacity:0.902;stroke:none;fill-rule:nonzero"/>
    <path d="m 26 33.563 c 0 0.277 -0.223 0.5 -0.5 0.5 -0.277 0 -0.5 -0.223 -0.5 -0.5 0 -0.277 0.223 -0.5 0.5 -0.5 0.277 0 0.5 0.223 0.5 0.5 m 0 0" style="fill:#f9f9f9;fill-opacity:0.902;stroke:none;fill-rule:nonzero"/>
    <path d="m 23 33.563 c 0 0.277 -0.223 0.5 -0.5 0.5 -0.277 0 -0.5 -0.223 -0.5 -0.5 0 -0.277 0.223 -0.5 0.5 -0.5 0.277 0 0.5 0.223 0.5 0.5 m 0 0" style="fill:#f9f9f9;fill-opacity:0.902;stroke:none;fill-rule:nonzero"/>
   </g>
  </g>
 </g>
 <g>
  <path d="m 40.03 7.531 c 3.712 4.084 5.969 9.514 5.969 15.469 0 12.703 -10.297 23 -23 23 c -5.954 0 -11.384 -2.256 -15.469 -5.969 4.178 4.291 10.01 6.969 16.469 6.969 c 12.703 0 23 -10.298 23 -23 0 -6.462 -2.677 -12.291 -6.969 -16.469 z" style="opacity:0.1"/>
 </g>
</svg>

<svg xmlns="http://www.w3.org/2000/svg" viewBox="0 0 48 48">
  <defs>
    <linearGradient id="a" x1="1" x2="47" gradientUnits="userSpaceOnUse" gradientTransform="rotate(-90 24 24)">
      <stop stop-color="#3d3d3d"/>
      <stop offset="1" stop-color="#474747"/>
    </linearGradient>
  </defs>
  <path d="M36.31 5c5.859 4.062 9.688 10.831 9.688 18.5 0 12.426-10.07 22.5-22.5 22.5-7.669 0-14.438-3.828-18.5-9.688a23.24 23.24 0 0 0 3.781 4.969 22.923 22.923 0 0 0 15.469 5.969c12.703 0 23-10.298 23-23a22.92 22.92 0 0 0-5.969-15.469A23.216 23.216 0 0 0 36.31 5zm4.969 3.781A22.911 22.911 0 0 1 47.498 24.5c0 12.703-10.297 23-23 23a22.909 22.909 0 0 1-15.719-6.219C12.939 45.425 18.662 48 24.998 48c12.703 0 23-10.298 23-23 0-6.335-2.575-12.06-6.719-16.219z" opacity=".05"/>
  <path d="M41.28 8.781a22.923 22.923 0 0 1 5.969 15.469c0 12.703-10.297 23-23 23A22.92 22.92 0 0 1 8.78 41.281 22.911 22.911 0 0 0 24.499 47.5c12.703 0 23-10.298 23-23A22.909 22.909 0 0 0 41.28 8.781z" opacity=".1"/>
  <path d="M31.25 2.375C39.865 5.529 46 13.792 46 23.505c0 12.426-10.07 22.5-22.5 22.5-9.708 0-17.971-6.135-21.12-14.75a23 23 0 0 0 44.875-7 23 23 0 0 0-16-21.875z" opacity=".2"/>
  <path d="M24 1c12.703 0 23 10.297 23 23S36.703 47 24 47 1 36.703 1 24 11.297 1 24 1z" fill="url(#a)"/>
  <path d="M19.17 13h11.668c.641 0 1.164.523 1.164 1.168v21.668c0 .641-.523 1.164-1.164 1.164H19.17a1.165 1.165 0 0 1-1.168-1.164V14.168c0-.645.52-1.168 1.168-1.168m0 0" opacity=".1"/>
  <g>
    <path d="M18.17 12h11.668c.641 0 1.164.523 1.164 1.168v21.668c0 .641-.523 1.164-1.164 1.164H18.17a1.165 1.165 0 0 1-1.168-1.164V13.168c0-.645.52-1.168 1.168-1.168m0 0" fill="#955bc1"/>
    <path d="M17.355 23h13.289c.195 0 .355.16.355.355v1.289c0 .195-.16.352-.355.352H17.355a.353.353 0 0 1-.355-.352v-1.289c0-.195.16-.355.355-.355m0 0" fill="#fff" fill-opacity=".251"/>
    <path d="M20 28h.996v3H20m0-3" fill="#f9f9f9" fill-opacity=".902"/>
    <path d="M19 29h3v.996h-3M28 28.5a.499.499 0 1 1-1 0 .499.499 0 1 1 1 0m0 0M29 29.5a.499.499 0 1 1-1 0 .499.499 0 1 1 1 0m0 0M27 29.5a.499.499 0 1 1-1 0 .499.499 0 1 1 1 0m0 0M28 30.5a.499.499 0 1 1-1 0 .499.499 0 1 1 1 0m0 0M23 26h1.996v1H23m0-1M19 14h10v7H19m0-7M26 33.563a.499.499 0 1 1-1 0 .499.499 0 1 1 1 0m0 0M23 33.563a.499.499 0 1 1-1 0 .499.499 0 1 1 1 0m0 0" fill="#f9f9f9" fill-opacity=".902"/>
  </g>
  <g>
    <path d="M40.03 7.531A22.922 22.922 0 0 1 45.999 23c0 12.703-10.297 23-23 23A22.92 22.92 0 0 1 7.53 40.031C11.708 44.322 17.54 47 23.999 47c12.703 0 23-10.298 23-23 0-6.462-2.677-12.291-6.969-16.469z" opacity=".1"/>
  </g>
</svg>
